X: 1
T: Coquet
R: reel
M: 4/4
L: 1/8
K: Gmaj
|:BA|"G" G2dd B2d2|"C" c2ec "G" B2dB|"G" d2GA BAGA|"D7" B2A2 A2BA|
"G" G2dd B2d2|"C" c2ec "G" B2dB|"G" d2GA BAGA|"G" B2 G2 G2:|
|:BA|"G" G2G2 BAGA|"D7" B2A2 A2BA|"G" G2GA BAGA|"G" d2B2 B2d2|
"C" efge "G"d2B2|"C" cBAG "D7" A2 (3DEF|"G" G2FG "D7" A2dc|"G" B2G2 G2:|

